X:135
T:North Frontenac Reel
R:reel
C:Bruce Osborne  --  July 1991
Z:abc by bosborne@kos.net
M:4/4
L:1/8
K:Bb
FE|DB,DF BcdB|AecA B2 FE|DFBF EGcB|AFGA B2 FE|\
DB,DF BcdB|AecA B2 FE|DFBF EGcB|AFGA B2:|
|:dc|BFDF B,FDF|EGBd e2 G^F|FcBc ecAc|BdBG F2 dc|\
BFDF B,FDF|EGBd e2 G^F|FcBc ecAc|AFGA B2:|
